X:1
T:A minor             Abraham Wood, 1793
T:Isaac Watts, 1707 (Hymn 91, Book 1)         88. 88. (L. M.)
T:Shrewsbury
T:Transcribed from The Columbian Harmony, 1793.
%%score [ 1 2 3 4 ]
L:1/8
Q:1/4=90
M:3/4
K:C
V:1 treble nm="Tr." snm="Tr."
V:2 treble nm="C." snm="C."
V:3 treble-8 nm="T." snm="T."
V:4 bass nm="B." snm="B."
V:1
"^1. Now in      the  heat  of  youthful  blood  Re–mem–ber  your  Cre – a  – tor  God: Behold, the months come hastening on, When you shall" A2 | %1
 (A>B c2) B2 | (c>d e2) d2 | (c>B A2) B2 | B4 B2 | B4 B2 | c4 d2 | (c>B A2) A2 | ^G4 B2 | %9
 (c>B A2) B2 | (c>d e2) cA | (d>c B2) B2 | c4 c2 | c4 B2 | %14
"^1. say,     My  joys __________  are  gone!" B4 A2 | (c3 B A2 | BA) ^G4 | A6 |] %18
V:2
"^2. Be–hold,   the   a    –    ged  sin – ner goes, La–den with  guilt  and  hea –vy woes,  Down to  the   re  –  gions  of  the  dead, With end–less" E2 | %1
 E4 D2 | G4 G2 | E4 F2 | E4 E2 | (E>F G2) G2 | G4 G2 | E4 F2 | E4 E2 | E4 G2 | G4 G2 | (A2 G2) G2 | %12
 G4 G2 | G4 G2 |"^2. cur  –  ses   on ___________   his  head." (F2 E2) E2 | (E6 | F2) E4 | E6 |] %18
V:3
"^3. The dust   re – turns    to   dust  a – gain;  The soul,  in  a  –  go  – nies  of  pain,  A–scends  to  God,    not    there  to dwell,  But hears  her" A2 | %1
 (c>d e2) f2 | (e>d c2) B2 | (A>B c2) d2 | e4 e2 | (g>f e2) d2 | (e>d c2) B2 | (A>B c2) d2 | %8
 B4 e2 | (A>B c2) d2 | (g>f e2) e2 | (f>e d2) d2 | e4 e2 | (e>d c2) d2 | %14
"^3. doom, and sinks _________  to    hell." (d>c B2) c2 | (A2 Bc de | dc) B4 | A6 |] %18
V:4
"^4. E – ter  –  nal   King!   I   fear   thy name;  Teach me to  know  how  frail   I   am;  And when my soul  must  hence  remove,  Give  me  a" A,2 | %1
 A,4 D,2 | E,4 G,2 | A,4 B,2 | E,4 E,2 | E,4 G,2 | (C,>D, E,2) G,2 | A,4 D,2 | E,4 E,2 | A,4 G,2 | %10
 (E,>D, C,2) C,2 | (D,2 G,2) G,2 | C,4 C,2 | (C,>D, E,2) G,2 | %14
"^4. man–sion   in ___________   thy  love." (D,2 E,2) A,2 | (A,6 | D,2) E,4 | A,,6 |] %18

